src/icons/svg/inbox.svg

<?xml version="1.0" standalone="no"?><!DOCTYPE svg PUBLIC "-//W3C//DTD SVG 1.1//EN" "http://www.w3.org/Graphics/SVG/1.1/DTD/svg11.dtd"><svg t="1584946699714" class="icon" viewBox="0 0 1024 1024" version="1.1" xmlns="http://www.w3.org/2000/svg" p-id="5045" xmlns:xlink="http://www.w3.org/1999/xlink" width="200" height="200"><defs><style type="text/css"></style></defs><path d="M657.700803 548.571429l180.589714 0q-0.585143-1.682286-1.462857-4.534857t-1.462857-4.534857l-121.124571-283.428571-404.553143 0-121.124571 283.428571q-0.585143 1.170286-1.462857 4.534857t-1.462857 4.534857l180.589714 0 54.272 109.714286 182.857143 0zM950.857374 565.686857l0 275.456q0 14.848-10.825143 25.746286t-25.746286 10.825143l-804.571429 0q-14.848 0-25.746286-10.825143t-10.825143-25.746286l0-275.456q0-35.401143 14.262857-70.290286l135.972571-315.465143q5.705143-14.262857 20.845714-23.990857t29.988571-9.728l475.428571 0q14.848 0 29.988571 9.728t20.845714 23.990857l135.972571 315.465143q14.262857 34.889143 14.262857 70.290286z" p-id="5046"></path></svg>

<svg class="icon" viewBox="0 0 1024 1024" xmlns="http://www.w3.org/2000/svg" width="200" height="200"><defs><style/></defs><path d="M657.7 548.571h180.59q-.585-1.682-1.462-4.534t-1.463-4.535L714.24 256.073H309.687L188.563 539.502q-.586 1.17-1.463 4.535t-1.463 4.534h180.59l54.272 109.715h182.857zm293.157 17.116v275.456q0 14.848-10.825 25.746t-25.746 10.825H109.715q-14.848 0-25.747-10.825t-10.825-25.746V565.687q0-35.401 14.263-70.29L223.379 179.93q5.705-14.262 20.845-23.99t29.989-9.728H749.64q14.848 0 29.989 9.728t20.846 23.99l135.972 315.466q14.263 34.889 14.263 70.29z"/></svg>
